X:18022
T:Rattling Bog
R:Polka
C:Trad.
O:Ireland
Z:Paul Hardy's Session Tunebook 2015 (see www.paulhardy.net). Creative Commons cc by-nc-sa licenced.
M:2/2
L:1/4
Q:1/2=80
K:D
d/2e/2|"D"f2 "D7"f3/2e/2|"G"dB B3/2B/2|"D"Ad d/2c/2d/2e/2|"E7"fe "A7"e2|"D"f2 "D7"f3/2e/2|"G"dB B3/2B/2|"D"Aa af|"A7"ed "D"d:|
d/2e/2|"D"fd "A7"ed/2e/2|"D"fd "A7"ed/2e/2|"D"fa a/f/ d/e/|"E7"fd "A7"ed/2e/2|"D"fd "A7"ed/2e/2|"D"fd "A7"ed/2e/2|"D"fa af|"A7"ed "D"d:|

